key-wireless.svg

<svg fill="currentColor" viewBox="0 0 24 24"><path d="m4.9 5.9 1.4 1.4c3.1-3.1 8.2-3.1 11.3 0L19 5.9C15.2 2 8.8 2 4.9 5.9m2.9 2.9 1.4 1.4c1.6-1.6 4.1-1.6 5.7 0l1.4-1.4c-2.4-2.4-6.2-2.4-8.5 0m4 6.2c-.8-2.3-3.4-3.6-5.7-2.7S2.4 15.7 3.3 18s3.4 3.6 5.7 2.7c1.3-.5 2.3-1.5 2.7-2.7H15v3h3v-3h3v-3M7.5 18c-.8 0-1.5-.7-1.5-1.5S6.7 15 7.5 15s1.5.7 1.5 1.5S8.3 18 7.5 18"/></svg>

<svg  viewBox="0 0 24 24" fill="currentColor"><path  d="M4.9 5.9L6.3 7.3C9.4 4.2 14.5 4.2 17.6 7.3L19 5.9C15.2 2 8.8 2 4.9 5.9M7.8 8.8L9.2 10.2C10.8 8.6 13.3 8.6 14.9 10.2L16.3 8.8C13.9 6.4 10.1 6.4 7.8 8.8M11.8 15C11 12.7 8.4 11.4 6.1 12.3S2.4 15.7 3.3 18 6.7 21.6 9 20.7C10.3 20.2 11.3 19.2 11.7 18H15V21H18V18H21V15M7.5 18C6.7 18 6 17.3 6 16.5C6 15.7 6.7 15 7.5 15S9 15.7 9 16.5C9 17.3 8.3 18 7.5 18Z"/></svg>
